X: 34
T: Andy Dejarlis
O:possibly by Andy Dejarlis
B: BSFC Session Tune Book 2016 p.60
B: BSFC Tune Book XXXIII-10
Z: 2019 John Chambers <jc:trillian.mit.edu>
M:6/8
L:1/8
R:Jig
K:E
z |\
"E"EGB EGB | "E"EGB "A"c2B | "E"EGB EGB | "D"=DFA "(B7)"B2A |\
"E"EGB EGB | "E"EGB "A"c2a | "E"g2f "B7"Bcd | "E"e3 e2 :|
|: a |\
"E"gbg efg | "A"{g}b2a c3 | "F#m"f2g f2e | "B7"dcB c2B |\
"E"gbg efg | "A"{g}b2a c2g | "B"g2f Bcd | "E"e3 e2 :||


